packages/crayons-icon/icons/dependent-field.svg

<?xml version="1.0" encoding="UTF-8"?>
<svg width="15px" height="14px" viewBox="0 0 15 14" version="1.1" xmlns="http://www.w3.org/2000/svg" xmlns:xlink="http://www.w3.org/1999/xlink">
    <!-- Generator: Sketch 52.6 (67491) - http://www.bohemiancoding.com/sketch -->
    <title>icon/dependent-field</title>
    <desc>Created with Sketch.</desc>
    <g id="Icons-✅" stroke="none" stroke-width="1" fill="none" fill-rule="evenodd">
        <g id="Icons" transform="translate(-245.000000, -2257.000000)" fill="currentColor">
            <g id="icon/dependent-field" transform="translate(245.000000, 2257.000000)">
                <g id="dependent-field">
                    <path d="M13.4,5.01820807e-14 C13.7865993,4.99600361e-14 14.1,0.313400675 14.1,0.7 L14.1,2.94 C14.1,3.32659932 13.7865993,3.64 13.4,3.64 L0.8,3.64 C0.413400675,3.64 0.1,3.32659932 0.1,2.94 L0.1,0.7 C0.1,0.313400675 0.413400675,4.99600361e-14 0.8,5.01820807e-14 L13.4,5.01820807e-14 Z M12.7,2.24 L12.7,1.4 L1.5,1.4 L1.5,2.24 L12.7,2.24 Z M13.4,5.18 C13.7865993,5.18 14.1,5.49340068 14.1,5.88 L14.1,8.12 C14.1,8.50659932 13.7865993,8.82 13.4,8.82 L5.63,8.82 C5.24340068,8.82 4.93,8.50659932 4.93,8.12 L4.93,5.88 C4.93,5.49340068 5.24340068,5.18 5.63,5.18 L13.4,5.18 Z M12.7,7.42 L12.7,6.58 L6.33,6.58 L6.33,7.42 L12.7,7.42 Z M1.91,5.18 C2.91515824,5.18 3.73,5.99484176 3.73,7 C3.73,8.00515824 2.91515824,8.82 1.91,8.82 C0.904841755,8.82 0.09,8.00515824 0.09,7 C0.09,5.99484176 0.904841755,5.18 1.91,5.18 Z M1.91,7.42 L1.93,7.42 C2.04049376,7.42003287 2.14632344,7.37546656 2.22350739,7.29640008 C2.30069134,7.21733359 2.34269497,7.11046089 2.34,7 C2.33993462,6.76935669 2.15389065,6.58191874 1.92325426,6.58013167 C1.69261787,6.5783446 1.50369172,6.76287712 1.50005231,6.99349172 C1.4964129,7.22410632 1.67942207,7.41450848 1.91,7.42 Z M1.91,10.36 C2.56022339,10.36 3.16105458,10.70689 3.48616628,11.27 C3.81127798,11.83311 3.81127798,12.52689 3.48616628,13.09 C3.16105458,13.65311 2.56022339,14 1.91,14 C0.904841755,14 0.09,13.1851582 0.09,12.18 C0.09,11.1748418 0.904841755,10.36 1.91,10.36 Z M1.91,12.6 L1.93,12.6 C2.15926184,12.5944732 2.34170689,12.4060687 2.33986446,12.1767477 C2.33802203,11.9474267 2.15257335,11.761978 1.9232523,11.7601355 C1.69393125,11.7582931 1.50552681,11.9407382 1.5,12.17 C1.49731603,12.2813999 1.53901179,12.3893002 1.61590838,12.4699478 C1.69280498,12.5505955 1.79859865,12.5973792 1.91,12.6 Z M13.4,10.36 C13.5856515,10.36 13.7636993,10.4337498 13.8949747,10.5650253 C14.0262502,10.6963007 14.1,10.8743485 14.1,11.06 L14.1,13.3 C14.1,13.6865993 13.7865993,14 13.4,14 L5.63,14 C5.24340068,14 4.93,13.6865993 4.93,13.3 L4.93,11.06 C4.93,10.6734007 5.24340068,10.36 5.63,10.36 L13.4,10.36 Z M12.7,12.6 L12.7,11.76 L6.33,11.76 L6.33,12.6 L12.7,12.6 Z" id="Combined-Shape"></path>
                </g>
            </g>
        </g>
    </g>
</svg>

<svg viewBox="0 0 15 14"><path d="M13.4 0a.7.7 0 0 1 .7.7v2.24a.7.7 0 0 1-.7.7H.8a.7.7 0 0 1-.7-.7V.7A.7.7 0 0 1 .8 0h12.6zm-.7 2.24V1.4H1.5v.84h11.2zm.7 2.94a.7.7 0 0 1 .7.7v2.24a.7.7 0 0 1-.7.7H5.63a.7.7 0 0 1-.7-.7V5.88a.7.7 0 0 1 .7-.7h7.77zm-.7 2.24v-.84H6.33v.84h6.37zM1.91 5.18a1.82 1.82 0 1 1 0 3.64 1.82 1.82 0 0 1 0-3.64zm0 2.24h.02A.41.41 0 0 0 2.34 7a.42.42 0 1 0-.43.42zm0 2.94a1.82 1.82 0 1 1 0 3.64 1.82 1.82 0 0 1 0-3.64zm0 2.24h.02a.42.42 0 1 0-.02 0zm11.49-2.24a.7.7 0 0 1 .7.7v2.24a.7.7 0 0 1-.7.7H5.63a.7.7 0 0 1-.7-.7v-2.24a.7.7 0 0 1 .7-.7h7.77zm-.7 2.24v-.84H6.33v.84h6.37z" fill="currentColor" fill-rule="evenodd"/></svg>
